icons/op-paragraph-left-24.svg

<svg width="24" height="24" viewBox="0 0 24 24" fill="none" xmlns="http://www.w3.org/2000/svg">
<path d="M20 7C20 7.5625 19.5625 8 19 8H12C11.4375 8 11 7.5625 11 7C11 6.4375 11.4375 6 12 6H19C19.5625 6 20 6.4375 20 7ZM20 17C20 17.5625 19.5625 18 19 18H12C11.4375 18 11 17.5625 11 17C11 16.4375 11.4375 16 12 16H19C19.5625 16 20 16.4375 20 17ZM20 12C20 11.4375 19.5625 11 19 11H17C16.4375 11 16 11.4375 16 12C16 12.5625 16.4375 13 17 13H19C19.5625 13 20 12.5625 20 12ZM8 13V11H13V13H8ZM4 12L8 9V15L4 12Z" fill="black"/>
</svg>

<svg xmlns="http://www.w3.org/2000/svg" width="24" height="24" viewBox="0 0 24 24"><path d="M20 7c0 .562-.438 1-1 1h-7c-.562 0-1-.438-1-1s.438-1 1-1h7c.562 0 1 .438 1 1Zm0 10c0 .562-.438 1-1 1h-7c-.562 0-1-.438-1-1s.438-1 1-1h7c.562 0 1 .438 1 1Zm0-5c0-.562-.438-1-1-1h-2c-.562 0-1 .438-1 1s.438 1 1 1h2c.562 0 1-.438 1-1ZM8 13v-2h5v2H8Zm-4-1 4-3v6l-4-3Z"/></svg>
